X: 1
T: Hobbart's Transformation
M: 4/4
L: 1/8
R: reel
K: Ador
e2a2 abag|e2a2 abag|edef gfgf|edef gfgf|
e2a2 abag|e2a2 abag|edef gfgf|edcB A2 z2:|
A2Ac BAGB|ABAG E2EG|AGAB cBcd|e3=f edcB|
A2Ac BAGB|ABAG E2AB|cBAc BAGB|A4 A4:|
